static/img/in-field/btn-secondary-focus-dark.svg

<svg fill="none" height="64" viewBox="0 0 126 64" width="126" xmlns="http://www.w3.org/2000/svg"><rect fill="#7d808d" height="48" rx="4" width="110" x="8" y="8"/><path d="m26.1309 25.2949h4.8877c2.2272 0 3.8421.3187 4.8447.9561 1.0097.6302 1.5146 1.6364 1.5146 3.0185 0 .9382-.222 1.708-.666 2.3096-.4368.6016-1.0205.9632-1.751 1.085v.1074c.9955.222 1.7116.6374 2.1485 1.2461.444.6087.666 1.4179.666 2.4277 0 1.4323-.5192 2.5495-1.5576 3.3516-1.0313.8021-2.4349 1.2031-4.211 1.2031h-5.8759zm3.33 6.2197h1.9336c.9024 0 1.5541-.1396 1.9551-.4189.4082-.2793.6123-.7412.6123-1.3857 0-.6016-.222-1.0313-.666-1.2891-.4369-.265-1.1315-.3975-2.084-.3975h-1.751zm0 2.6426v4.0928h2.17c.9166 0 1.5934-.1755 2.0302-.5264.4369-.3509.6553-.888.6553-1.6113 0-1.3034-.931-1.9551-2.793-1.9551zm19.9512 6.8428-.4404-1.5361h-.1719c-.3509.5586-.8486.9918-1.4932 1.2998-.6445.3008-1.3785.4511-2.2021.4511-1.4108 0-2.4743-.3759-3.1904-1.1279-.7162-.7591-1.0743-1.8476-1.0743-3.2656v-7.8311h3.2764v7.0147c0 .8665.154 1.5182.4619 1.9551.308.4296.7985.6445 1.4717.6445.9167 0 1.5791-.3044 1.9873-.9131.4082-.6159.6123-1.6328.6123-3.0508v-5.6504h3.2764v12.0098zm11.2608-2.3955c.5729 0 1.2604-.1253 2.0625-.376v2.4385c-.8165.3652-1.8191.5478-3.0079.5478-1.3105 0-2.2666-.3294-2.8681-.9882-.5944-.6661-.8916-1.6615-.8916-2.9864v-5.79h-1.5684v-1.3857l1.8047-1.0957.9453-2.5352h2.0947v2.5566h3.3623v2.46h-3.3623v5.79c0 .4655.1289.8093.3868 1.0313.2649.222.6123.333 1.042.333zm9.8105 0c.5729 0 1.2604-.1253 2.0625-.376v2.4385c-.8164.3652-1.819.5478-3.0078.5478-1.3106 0-2.2666-.3294-2.8682-.9882-.5944-.6661-.8916-1.6615-.8916-2.9864v-5.79h-1.5683v-1.3857l1.8046-1.0957.9454-2.5352h2.0947v2.5566h3.3623v2.46h-3.3623v5.79c0 .4655.1289.8093.3867 1.0313.265.222.6123.333 1.042.333zm7.3613-3.6309c0 1.1888.1934 2.0876.5801 2.6963.3939.6087 1.0313.9131 1.9121.9131.8737 0 1.5003-.3008 1.8799-.9023.3867-.6088.5801-1.5111.5801-2.7071 0-1.1888-.1934-2.0804-.5801-2.6748s-1.0205-.8916-1.9014-.8916c-.8737 0-1.5039.2972-1.8906.8916-.3867.5873-.5801 1.4789-.5801 2.6748zm8.3037 0c0 1.9551-.5156 3.4841-1.5468 4.5869-1.0313 1.1029-2.4672 1.6543-4.3077 1.6543-1.1529 0-2.1699-.2506-3.0507-.7519-.8809-.5085-1.5577-1.2354-2.0303-2.1807-.4727-.9453-.709-2.0482-.709-3.3086 0-1.9622.5121-3.4876 1.5361-4.5761 1.0241-1.0886 2.4636-1.6329 4.3184-1.6329 1.153 0 2.1699.2507 3.0508.752.8808.5013 1.5576 1.221 2.0303 2.1592.4726.9381.7089 2.0374.7089 3.2978zm14.0426 6.0264h-3.276v-7.0146c0-.8666-.1539-1.5147-.4619-1.9444-.3079-.4368-.7985-.6553-1.4717-.6553-.9166 0-1.5791.308-1.9873.9239-.4082.6087-.6123 1.622-.6123 3.04v5.6504h-3.2763v-12.0098h2.5029l.4404 1.5362h.1826c.3653-.5801.8666-1.017 1.504-1.3106.6445-.3008 1.375-.4512 2.1914-.4512 1.3964 0 2.4563.3796 3.1796 1.1387.7234.752 1.0846 1.8405 1.0846 3.2656z" fill="#fff"/><rect height="60" rx="6" stroke="#019aeb" stroke-width="4" width="122" x="2" y="2"/></svg>

<svg width="126" height="64" viewBox="0 0 126 64" fill="none" xmlns="http://www.w3.org/2000/svg"><rect x="8" y="8" width="110" height="48" rx="4" fill="#7D808D"/><path d="M26.1309 25.2949H31.0186C33.2458 25.2949 34.8607 25.6136 35.8633 26.251C36.873 26.8812 37.3779 27.8874 37.3779 29.2695C37.3779 30.2077 37.1559 30.9775 36.7119 31.5791C36.2751 32.1807 35.6914 32.5423 34.9609 32.6641V32.7715C35.9564 32.9935 36.6725 33.4089 37.1094 34.0176C37.5534 34.6263 37.7754 35.4355 37.7754 36.4453C37.7754 37.8776 37.2562 38.9948 36.2178 39.7969C35.1865 40.599 33.7829 41 32.0068 41H26.1309V25.2949ZM29.4609 31.5146H31.3945C32.2969 31.5146 32.9486 31.375 33.3496 31.0957C33.7578 30.8164 33.9619 30.3545 33.9619 29.71C33.9619 29.1084 33.7399 28.6787 33.2959 28.4209C32.859 28.1559 32.1644 28.0234 31.2119 28.0234H29.4609V31.5146ZM29.4609 34.1572V38.25H31.6309C32.5475 38.25 33.2243 38.0745 33.6611 37.7236C34.098 37.3727 34.3164 36.8356 34.3164 36.1123C34.3164 34.8089 33.3854 34.1572 31.5234 34.1572H29.4609ZM49.4121 41L48.9717 39.4639H48.7998C48.4489 40.0225 47.9512 40.4557 47.3066 40.7637C46.6621 41.0645 45.9281 41.2148 45.1045 41.2148C43.6937 41.2148 42.6302 40.8389 41.9141 40.0869C41.1979 39.3278 40.8398 38.2393 40.8398 36.8213V28.9902H44.1162V36.0049C44.1162 36.8714 44.2702 37.5231 44.5781 37.96C44.8861 38.3896 45.3766 38.6045 46.0498 38.6045C46.9665 38.6045 47.6289 38.3001 48.0371 37.6914C48.4453 37.0755 48.6494 36.0586 48.6494 34.6406V28.9902H51.9258V41H49.4121ZM60.6729 38.6045C61.2458 38.6045 61.9333 38.4792 62.7354 38.2285V40.667C61.9189 41.0322 60.9163 41.2148 59.7275 41.2148C58.417 41.2148 57.4609 40.8854 56.8594 40.2266C56.265 39.5605 55.9678 38.5651 55.9678 37.2402V31.4502H54.3994V30.0645L56.2041 28.9688L57.1494 26.4336H59.2441V28.9902H62.6064V31.4502H59.2441V37.2402C59.2441 37.7057 59.373 38.0495 59.6309 38.2715C59.8958 38.4935 60.2432 38.6045 60.6729 38.6045ZM70.4834 38.6045C71.0563 38.6045 71.7438 38.4792 72.5459 38.2285V40.667C71.7295 41.0322 70.7269 41.2148 69.5381 41.2148C68.2275 41.2148 67.2715 40.8854 66.6699 40.2266C66.0755 39.5605 65.7783 38.5651 65.7783 37.2402V31.4502H64.21V30.0645L66.0146 28.9688L66.96 26.4336H69.0547V28.9902H72.417V31.4502H69.0547V37.2402C69.0547 37.7057 69.1836 38.0495 69.4414 38.2715C69.7064 38.4935 70.0537 38.6045 70.4834 38.6045ZM77.8447 34.9736C77.8447 36.1624 78.0381 37.0612 78.4248 37.6699C78.8187 38.2786 79.4561 38.583 80.3369 38.583C81.2106 38.583 81.8372 38.2822 82.2168 37.6807C82.6035 37.0719 82.7969 36.1696 82.7969 34.9736C82.7969 33.7848 82.6035 32.8932 82.2168 32.2988C81.8301 31.7044 81.1963 31.4072 80.3154 31.4072C79.4417 31.4072 78.8115 31.7044 78.4248 32.2988C78.0381 32.8861 77.8447 33.7777 77.8447 34.9736ZM86.1484 34.9736C86.1484 36.9287 85.6328 38.4577 84.6016 39.5605C83.5703 40.6634 82.1344 41.2148 80.2939 41.2148C79.141 41.2148 78.124 40.9642 77.2432 40.4629C76.3623 39.9544 75.6855 39.2275 75.2129 38.2822C74.7402 37.3369 74.5039 36.234 74.5039 34.9736C74.5039 33.0114 75.016 31.486 76.04 30.3975C77.0641 29.3089 78.5036 28.7646 80.3584 28.7646C81.5114 28.7646 82.5283 29.0153 83.4092 29.5166C84.29 30.0179 84.9668 30.7376 85.4395 31.6758C85.9121 32.6139 86.1484 33.7132 86.1484 34.9736ZM100.191 41H96.915V33.9854C96.915 33.1188 96.7611 32.4707 96.4531 32.041C96.1452 31.6042 95.6546 31.3857 94.9814 31.3857C94.0648 31.3857 93.4023 31.6937 92.9941 32.3096C92.5859 32.9183 92.3818 33.9316 92.3818 35.3496V41H89.1055V28.9902H91.6084L92.0488 30.5264H92.2314C92.5967 29.9463 93.098 29.5094 93.7354 29.2158C94.3799 28.915 95.1104 28.7646 95.9268 28.7646C97.3232 28.7646 98.3831 29.1442 99.1064 29.9033C99.8298 30.6553 100.191 31.7438 100.191 33.1689V41Z" fill="#fff"/><rect x="2" y="2" width="122" height="60" rx="6" stroke="#019AEB" stroke-width="4"/></svg>
